X: 4098
T: The YOE
R: Strathspey.
%R: strathspey
B: James Kerr "Merry Melodies" v.4 p.13 #98
Z: 2016 John Chambers <jc:trillian.mit.edu>
M: C
L: 1/8
K: G
|:\
D<G G>F D<G G>A | F2A>F d>FA>F |\
D<G G>F D<G G>g | f>d (3(cBA) (B<G) G2 ::\
g2b>g d>gb>g |
f2a>f d>fa>f |\
[1 g2b>g d>gb>g | a>gf>a g2g2 :|\
[2 (3bag (3agf g<d d>e | d>cB>A G2g2 |]

%%sep 1 1 500
%%sep 1 1 500

